X: 40490
T: Tomeen O'Dea's
R: reel
M: 4/4
K: Gmajor
|B2AG EGDG|EAAG ABGA|B2AG EGDG|EG G2 EG G2|
BGAG EGDG|EAAG ABGA|B2AG GEDG|EG G2 EGGD||
G2 (3Bcd egdB|GBdB cA A2|G2 (3Bcd edBe|dBAc BGGD|
G2 (3Bcd gedB|GBdB cA A2|G2 (3Bcd edef|g3a gedc||

